X: 1
T: The Sheltered Cove
T: 32Sx8 3C (Zadworny - Aye Afloat)
P: The Sheltered Cove
C: Muriel A Johnstone
R: Strathspey
K: C
M: 4/4
L: 1/16
E2F2|"C"G6 G2 "G"G2A2 E2D2|"C"C4 c4 B2c2 G2E2|"F"A6 B2 c4 B2c2|"Dm"A6 G2 "G"G4 E2F2|"C"G6 G2 "C"G2A2 E2D2|"Am"C4 c4 "F"B2c2 A2B2|"C"c4 d2e2 "F"f2e2 d2c2|"G"G4 c4 "C"c4 :|
A2B2|"C"c4 e2c2 "F"A4 c2A2|"G"G2A2 c2d2 "C"c2d2 e2g2|"Am"a4 e4 e4 a2g2|"Dm"f2e2 d2c2 "G"d4 c2d2|"C"e4 f2g2 a2g2 f2e2|"Am"e6 d2 "C"c2B2 A2G2|"F"A2G2 F2E2 "G"G6 G2|"C"G4 c8 B4||
"C"c4 e2c2 "F"A4 c2A2|"G"G2A2 c2d2 "C"c2d2 e2g2|"Am"a4 e4 e4 a2g2|"Dm"f2e2 d2c2 "G"d6 G2|"C"G6 G2 A2c2 d2e2|"G"g2d2 f2c2 B2A2 G2A2|"F"A2G2 F2E2 "G"G6 G2|"C"G4 c4 c4|]

